X:1
T:Bingo
M:6/8
L:1/4
K:C
 G/2| c/2c/2c/2 c G/2| c/2c/2c/2 c G/2| c c/2 d d/2| e3/2 c3/2| g3/2 g3/2|\
 a g/2 f3/2| f3/2 f3/2| g f/2 e3/2| e3/2 e3/2| f e/2 d c/2| B G/2 A B/2|\
 c3/2 c||

